X:1
T:Heruvimska pesen
T:Heruvimska pesen
T:Atanas Badev
C:Atanas Badev
%%score [ 1 2 3 ( 4 5 ) ]
L:1/8
Q:1/4=42
M:4/4
K:C
V:1 treble nm="Soprano"
V:2 treble nm="Alto"
V:3 treble-8 nm="Tenor"
V:4 bass nm="Bass"
V:5 bass 
V:1
"^Largo" z8 |!p! (A3 _B A2) G2 | (G F2) F (E2 A2) | ^G4 !fermata!z4 |!p! (^G4 A2)!<(! E2 | %5
w: |I- * * zhe|He- * ru- vi- *|mi|taj- * no|
 (B2 c2)!<)! d4 |!>(! (c2 A4) (A^G)!>)! | A4 !fermata!z4 | A4 G4 | c3 _B (BcA) G | (F4!<(! d4!<)! | %11
w: o- * bra-|zu- * ju- *|sjte.|I zhi-|vo- tvo- rja- * * sjtei|Troj- *|
 c4) !fermata!c2 z2 |!mf! _B4 A4 | d3 c (cd_B) A | (G4!<(! _e4 | d4)!<)! !fermata!d2 z2 | %16
w: * tse.|I zhi-|vo- tvo- rja- * * shtei|Troj- *|* tse.|
!f! d3 c _B2 B2 | A4 (G2 B2) | c3 A G2 F2 | !fermata!E4 z4 | z8 |!p! A3 _B A2 G2 | %22
w: Tri- svja- tu- ju|pjes- s'n _|pri- pje- va- ju-|sjte.||Vsja- * ko- e|
 (G F2) F E2 A3/2 A/ | !fermata!^G4 z4 |!p! ^G3 G!<(! (A2 E2)!<)! | (B2 c2 d2)!>(! B2 | %26
w: ni- * ne zhi- tej- sko-|e,|Ot- lo- zhim _|po- * * pe-|
 (c2 A4)!>)! (A^G) | !fermata!A4 z4 ||!<(! (E2 A2 B2 A2)!<)! |!>(! !fermata!^G4!>)! z4 || %30
w: tsje- * ni- *|e.|A- * * *|min.|
[K:A][Q:1/4=80]"^Allegro"!f! A2 E4 A B | c3 B e3 d | (decB) !breath!A3 B | c4 !fermata!B2 z2 | %34
w: Ja- ko da Tsar-|ja _ vsjeh po-|di- * * * mem, po-|di- mem.|
 z (B2 A) (AG) F2 | E3 F G3 A | !breath!F2 F2 B2 ^d2 | e3 ^d (e2 BA | AG F2) !fermata!G4 | %39
w: An- * gel- * ski|mi ne vi- di-|mo do- ri- no|si- ma tsjin- * *|* * * mi.|
 A2 E2 E2 (AB) | (c3 B) e3 d | (de) (cB) !breath!A2 A B | (ce-ed- dc) B2 | !fermata!A4 z4 |] %44
w: A- li- lu- i- *|ja, _ a- li-|lu- * i- * ja, a- li-|lu- * * * * * i-|ja!|
V:2
!p! (E3 F E2) D2 | (CD E2 F3) E | D2 D2 (C3 D) | E4 !fermata!z4 |!p! E6!<(! E2 | %5
w: I- * * zhe|I- * * * zhe|He- ru- vi- *|mi|taj- no|
 (E3 A!<)! ^GA) B2 |!>(! (A4 E2) D2!>)! | C4 !fermata!z4 | F6 F2 | E3 E F3 E | (FE D2 F2 G2 | %11
w: o- * * * bra-|zu- * ju-|sjte.|I zhi-|vo- tvo- rja- sjtei|Troj- * * * *|
 A2 G2) !fermata!A2 z2 |!mf! G6 ^F2 | G3 ^F G3 A | (D2!<(! _E2 G2 A2 | B2 A2)!<)! !fermata!B2 z2 | %16
w: * * tse.|I zhi-|vo- tvo- rja- sjtei|Troj- * * *|* * tse.|
!f! _B2 A2 AD G2 | (GCFD) (G3 F) | (F E2) D E2 D2 | !fermata!C4 z4 |!p! E3 F E2 D2 | (CD) E2 F3 E | %22
w: Tri- svja- tu- * ju|pjes- * * * s'n _|pri- * pje- va- ju-|sjte.|Vsja- * ko- e|Vsja- * * ko- e|
 D2 D2 C2 C3/2 D/ | !fermata!E4 z4 |!p! E3 E!<(! E4!<)! | (E3 A ^GA)!>(! B2 | (A4 E2)!>)! D2 | %27
w: ni- ne zhi- tej- sko-|e,|Ot- lo- zhim|po- * * * pe-|tsje- * ni-|
 !fermata!C4 z4 ||!<(! (^C2 E6)!<)! |!>(! !fermata!E4!>)! z4 ||[K:A]!f! E3 D (DE) (CB,) | %31
w: e.|A- *|min.|Ja- ko da _ Tsar- *|
 A,2 A G A2 B2 | E6- !breath!E E | (E2 F2) !fermata!G2 z2 | (E2 F2) E3 ^D | E3 ^D (EFG) E | %36
w: ja vsjeh po- di- *|mem, _ po-|di- * mem.|An- * gel- ski|mi ne vi- * * di-|
 !breath!^D2 (CD) (E B2) A | (AG) F2 (E4- | E3 ^D) !fermata!E4 | E3 =D (DE) (CB,) | A,2 A G A2 B2 | %41
w: mo Do- * ri- * no|si- * ma tsjin-|* * mi.|A- li- lu- * i- *|ja, a- li- lu- i-|
 !breath!E6 E E | (E2 A4) (AG) | !fermata!E4 z4 |] %44
w: ja, a- li-|lu- * i- *|ja!|
V:3
!p! (c3 d c2) B2 | (AB c4) c2 | A2 B2 (c3 B) | B4 !fermata!z4 |!p! (B4 A2)!<(! c2 | e6!<)! e2 | %6
w: I- * * zhe|I- * * zhe|He- ru- vi- *|mi|taj- * no|o- bra-|
!>(! (e3 d- dc) B2!>)! | A4 !fermata!z4 | c4 c4 | c3 c c3 _B | (A4 _BF-FE | F4) !fermata!F2 z2 | %12
w: zu- * * * ju-|sjte.|I zhi-|vo- tvo- rja- sjtei|Troj- * * * *|* tse.|
!mf! d4 d4 | d3 d d3 d | (_B4!<(! c G2 ^F | G4)!<)! !fermata!G2 z2 |!f! d2 d2 d3 c | %17
w: I zhi-|vo- tvo- rja- sjtei|Troj- * * *|* tse.|Tri- svja- tu- ju|
 (c3 =B) (c2 d2) | G2 A2 c3 B | !fermata!c4 z4 |!p! c3 d c2 B2 | (AB) c2 c2 c2 | A2 B2 c2 c3/2 B/ | %23
w: pjes- * s'n _|pri- pje- va- ju-|sjte.|Vsja- * ko- e|Vsja- * * ko- e|ni- ne zhi- tej- sko-|
 !fermata!B4 z4 |!p! B3 B!<(! (A2 c2)!<)! | e6!>(! e2 | (e3 d- dc)!>)! B2 | !fermata!A4 z4 || %28
w: e,|Ot- lo- zhim _|po- pe-|tsje- * * * ni-|e.|
!<(! (A2 ^c2 d3 c)!<)! |!>(! !fermata!B4!>)! z4 ||[K:A]!f! c2 B2 A2 e2 | e4 e2 e2 | %32
w: A- * * *|min.|Ja- ko da Tsar-|ja vsjeh po-|
 (e3 G) !breath!A3 G | (A E2 ^D) !fermata!E2 z2 | (G2 F2) B2 B2 | B3 B B3 B | !breath!B2 B2 B2 B2 | %37
w: di- * mem, po-|di- * * mem.|An- * gel- ski|mi ne vi- di-|mo do- ri- no|
 B2 B2 (B3 d | B4) !fermata!B4 | c2 B2 A2 e2 | e4 e3 e | e3 G !breath!A2 A G | A4 e2 d2 | %43
w: si- ma tsjin- *|* mi.|A- li- lu- i-|ja, a- li-|lu- i- ja, a- li-|lu- * i-|
 !fermata!c4 z4 |] %44
w: ja!|
V:4
!p! [A,,A,]6 ([A,,A,][^G,,^G,]) | ([A,,A,]3 [G,,G,] F,2) C,2 | D,2 G,2 (A,G, F,2) | %3
w: I- zhe _|I- * * zhe|He- ru- vi- * *|
 E,4 !fermata!z4 |!p! (E,2 D,2- D,C,)!<(! (B,,A,,) | (A,,^G,, A,,2!<)! B,,A,,) G,,2 | %6
w: mi|taj- * * * no _|o- * * * * bra-|
!>(! ([A,,A,][=G,,=G,] [F,,F,]2 [E,,E,]2) [E,,E,]2!>)! | A,,4 !fermata!z4 | (F,2 A,2) (C3 _B,) | %9
w: zu- * * * ju-|sjte.|I _ zhi- *|
 (_B,CA,) G, F,3 C, | (D,3 C, _B,,4 | F,,4) !fermata!F,,2 z2 |!mf! (G,2 _B,2) D3 C | %13
w: vo- * * tvo- rja- sjtei|Troj- * *|* tse.|I _ zhi- *|
 (CD_B,) A, G,3 ^F, | (G,=F,!<(!_E,D, C,4 | G,,4)!<)! !fermata!G,,2 z2 |!f! G,3 ^F, G,3 E, | %17
w: vo- * * tvo- rja- sjtei|Troj- * * * *|* tse.|Tri- svja- tu- ju|
 =F,4 (F,E, D,2) | C,2 (A,F,) G,2 G,,2 | !fermata!C,4 z4 | %20
w: pjes- s'n _ _|pri- pje- * va- ju-|sjte.|
!p! [A,,A,]4 [A,,A,]2 ([A,,A,][^G,,^G,]) | ([A,,A,]3 [G,,G,]) F,2 C,2 | D,2 G,2 (A,G,) F,3/2 F,/ | %23
w: Vsja- ko- e _|Vsja- * ko- e|ni- ne zhi- * tej- sko-|
 !fermata!E,4 z4 |!p! E,2 D,2!<(! (D,C,B,,A,,)!<)! | (A,,^G,, A,,2 B,,A,,)!>(! G,,2 | %26
w: e,|Ot- lo- zhim _ _ _|po- * * * * pe-|
 ([A,,A,][=G,,=G,] [F,,F,]2 [E,,E,]2)!>)! [E,,E,]2 | !fermata!A,,4 z4 || %28
w: tsje- * * * ni-|e.|
!<(! (A,,4- A,,^G,, A,,2)!<)! |!>(! !fermata![E,,E,]4!>)! z4 ||[K:A]!f! A,3 G, A,3 G, | %31
w: A- * * *|min.|Ja- ko da Tsar-|
 (A,B,CD) (CB,A,) G, | (A,2 E,D,) (D,E,!breath!C,) B,, | A,,4 !fermata![E,,E,]2 z2 | %34
w: ja _ _ _ vsjeh _ _ po-|di- * * mem, _ _ po-|di- mem.|
 (E,3 ^D,) E,2 F,2 | (G,A,G,) F, E,3 G, | !breath!B,, B,2 A, (A,G,) F,2 | E,2 F,2 (G,F,G,A, | %38
w: An- * gel- ski|mi _ _ ne vi- di-|mo do- * ri- * no|si- ma tsjin- * * *|
 B,2 B,,2) !fermata!E,4 | A,3 G, A,3 G, | (A,B,CD) (CB,A,) G, | A,2 (E,D,) (D,!breath!E,) C, B,, | %42
w: * * mi.|A- li- lu- i-|ja, _ _ _ a- * * li-|lu- i- * ja, _ a- li-|
 (A,,2 [^E,,^E,]2 [=E,,=E,]2) [E,,E,]2 | !fermata!A,,4 z4 |] %44
w: lu- * * i-|ja!|
V:5
 x8 | x4 F,,A,, C,2 | x8 | x8 | x8 | x8 | x8 | x8 | x8 | x8 | x8 | x8 | x8 | x8 | x8 | x8 | x8 | %17
 x8 | x8 | x8 | x8 | x4 (F,,A,,) C,2 | x8 | x8 | x8 | x8 | x8 | x8 || x8 | x8 ||[K:A] x8 | x8 | %32
 x8 | x8 | x8 | x8 | x8 | x8 | x8 | x8 | x8 | x8 | x8 | x8 |] %44

